X:2
T:No.56 Mazurka
C:mazurka
M:3/4
L:1/8
K:D
DF||AFA2dc|BGB2ed|cBc2BA|
FDF2DF|AFA2dc|BGB2ed|
cBc2BA|[1d2d2DF:|[2d2d2fg||
afd2A2|c2B2ef|gec2A2|
BcA2fg|afd2A2|c2B2ef|
ge cA Bc|[1d2d2fg:|[2d2d2z2||
